src/actions/24/run-build-configure.svg

<svg xmlns="http://www.w3.org/2000/svg" viewBox="0 0 24 24">
  <defs id="defs3051">
    <style type="text/css" id="current-color-scheme">
      .ColorScheme-Text {
        color:#363636;
      }
      </style>
  </defs>
 <path style="fill:currentColor;fill-opacity:1;stroke:none" 
     d="M 12 4 C 11.32479 4.004 10.65279 4.092995 10 4.265625 L 10 5.2988281 L 10 5.3105469 A 7 7 0 0 0 8.6835938 5.8554688 L 8.6757812 5.8476562 L 7.9433594 5.1152344 C 6.7764094 5.8032844 5.8032844 6.7764094 5.1152344 7.9433594 L 5.6367188 8.4648438 L 5.8554688 8.6835938 A 7 7 0 0 0 5.3085938 10 L 5.2949219 10 L 4.2597656 10 C 4.0891457 10.65304 4.00187 11.32505 4 12 C 4.004 12.67521 4.093005 13.34721 4.265625 14 L 5.2988281 14 L 5.3105469 14 A 7 7 0 0 0 5.8554688 15.316406 L 5.6367188 15.535156 L 5.1152344 16.056641 C 5.8032844 17.223601 6.7763994 18.196716 7.9433594 18.884766 L 8.4648438 18.363281 L 8.6835938 18.144531 A 7 7 0 0 0 10 18.691406 L 10 19 L 10 19.740234 C 10.65304 19.910854 11.32504 19.99813 12 20 C 12.335 19.998 12.66853 19.973387 13 19.929688 L 13 18.923828 C 12.66955 18.972628 12.33491 18.9988 12 19 C 11.66455 18.9995 11.33106 18.974081 11 18.925781 L 11 18.921875 L 11 18 L 11 17.910156 A 6 6 0 0 1 8.5273438 16.886719 L 8.4648438 16.949219 L 7.8144531 17.599609 L 7.8105469 17.603516 C 7.2742507 17.201463 6.7991075 16.72484 6.3984375 16.1875 L 6.4003906 16.185547 L 7.0507812 15.535156 L 7.1152344 15.470703 A 6 6 0 0 1 6.0859375 13 L 6 13 L 5.0800781 13 L 5.0761719 13 C 5.0273719 12.66955 5.0012 12.33491 5 12 C 5.0005 11.66455 5.0259187 11.33106 5.0742188 11 L 5.078125 11 L 6 11 L 6.0898438 11 A 6 6 0 0 1 7.1132812 8.5273438 L 7.0507812 8.4648438 L 6.4003906 7.8144531 L 6.3964844 7.8105469 C 6.7985582 7.2742507 7.27516 6.7991075 7.8125 6.3984375 L 7.8144531 6.4003906 L 8.4648438 7.0507812 L 8.5292969 7.1152344 A 6 6 0 0 1 11 6.0859375 L 11 6 L 11 5.0800781 L 11 5.0761719 C 11.33044 5.0273719 11.66509 5.0012 12 5 C 12.33545 5.0005 12.66894 5.0259187 13 5.0742188 L 13 5.078125 L 13 6 L 13 6.0898438 A 6 6 0 0 1 15.472656 7.1132812 L 15.535156 7.0507812 L 16.185547 6.4003906 L 16.189453 6.3964844 C 16.725763 6.7985444 17.200883 7.27516 17.601562 7.8125 L 17.599609 7.8144531 L 16.949219 8.4648438 L 16.884766 8.5292969 A 6 6 0 0 1 17.914062 11 L 18 11 L 18.919922 11 L 18.923828 11 C 18.972628 11.33045 18.9988 11.66509 19 12 C 18.99951 12.33545 18.974081 12.66894 18.925781 13 L 18.921875 13 L 18 13 L 17.910156 13 A 6 6 0 0 1 17.638672 14 L 18.691406 14 L 19.740234 14 C 19.91085 13.34696 19.99813 12.67496 20 12 C 19.996 11.3248 19.907005 10.65279 19.734375 10 L 19 10 L 18.689453 10 A 7 7 0 0 0 18.144531 8.6835938 L 18.152344 8.6757812 L 18.884766 7.9433594 C 18.196736 6.7763994 17.223601 5.8032844 16.056641 5.1152344 L 15.328125 5.84375 L 15.316406 5.8554688 A 7 7 0 0 0 14 5.3085938 L 14 5.2949219 L 14 4.2597656 C 13.34696 4.0891457 12.67496 4.00187 12 4 z M 10 9 L 10 15 L 15 12 L 10 9 z M 15 15 L 15 16 L 20 16 L 20 15 L 15 15 z M 15 17 L 15 18 L 20 18 L 20 17 L 15 17 z M 15 19 L 15 20 L 20 20 L 20 19 L 15 19 z "
     class="ColorScheme-Text"
     />
</svg>

<svg xmlns="http://www.w3.org/2000/svg" viewBox="0 0 24 24">
    <path d="M12 4a8.008 8.008 0 0 0-2 .266V5.31a7 7 0 0 0-1.316.544l-.008-.007-.733-.733a8 8 0 0 0-2.828 2.828l.522.522.218.219A7 7 0 0 0 5.31 10H4.26A8 8 0 0 0 4 12c.004.675.093 1.347.266 2H5.31a7 7 0 0 0 .544 1.316l-.218.22-.522.52a8 8 0 0 0 2.828 2.829l.522-.522.219-.218A7 7 0 0 0 10 18.69v1.049a8 8 0 0 0 2 .26 8.013 8.013 0 0 0 1-.07v-1.006c-.33.049-.665.075-1 .076-.335 0-.669-.026-1-.074V17.91a6 6 0 0 1-2.473-1.023l-.062.062-.65.65-.004.005a6.995 6.995 0 0 1-1.413-1.416l.002-.002.65-.65.065-.065A6 6 0 0 1 6.085 13H5.077A7.023 7.023 0 0 1 5 12c0-.335.026-.669.074-1H6.09a6 6 0 0 1 1.023-2.473l-.062-.062-.65-.65-.005-.004a6.995 6.995 0 0 1 1.417-1.413l.001.002.65.65.065.065A6 6 0 0 1 11 6.085V5.077c.33-.049.665-.075 1-.076.335 0 .669.026 1 .074V6.09a6 6 0 0 1 2.473 1.023l.062-.062.65-.65.004-.005a6.995 6.995 0 0 1 1.413 1.417l-.002.001-.65.65-.065.065A6 6 0 0 1 17.915 11H18.923c.049.33.075.665.076 1 0 .335-.026.669-.074 1H17.91a6 6 0 0 1-.271 1H19.74A8 8 0 0 0 20 12a8.008 8.008 0 0 0-.266-2H18.69a7 7 0 0 0-.545-1.316l.007-.008.733-.733a8 8 0 0 0-2.828-2.828l-.729.729-.012.011A7 7 0 0 0 14 5.31V4.26A8 8 0 0 0 12 4zm-2 5v6l5-3-5-3zm5 6v1h5v-1h-5zm0 2v1h5v-1h-5zm0 2v1h5v-1h-5z" style="fill:currentColor;fill-opacity:1;stroke:none;color:#050505;opacity:.7"/>
</svg>
